images/themes/qfield/nodpi/ic_split_tool_white_24dp.svg

<?xml version="1.0" encoding="UTF-8"?>
<svg width="24" height="24" version="1.1" xmlns="http://www.w3.org/2000/svg" xmlns:cc="http://creativecommons.org/ns#" xmlns:dc="http://purl.org/dc/elements/1.1/" xmlns:rdf="http://www.w3.org/1999/02/22-rdf-syntax-ns#">
 <metadata>
  <rdf:RDF>
   <cc:Work rdf:about="">
    <dc:format>image/svg+xml</dc:format>
    <dc:type rdf:resource="http://purl.org/dc/dcmitype/StillImage"/>
    <dc:title/>
   </cc:Work>
  </rdf:RDF>
 </metadata>
 <path d="m18.3 4-5.4 5.3 1.8 1.8 6.3-6.3v-0.8m-14.4 15.2c-2.4 0-2.4-3.6 0-3.6 2.4 0 2.4 3.6 0 3.6m0-10.8c-2.4 0-2.4-3.6 0-3.6 2.4 0 2.4 3.6 0 3.6m3.276-0.324c0.207-0.45 0.324-0.945 0.324-1.476 0-3.2075-3.8777-4.8132-6.1455-2.5455s-0.66203 6.1455 2.5455 6.1455c0.531 0 1.026-0.117 1.476-0.324l2.124 2.124-2.124 2.124c-0.46261-0.21398-0.9663-0.32454-1.476-0.324-3.2075 0-4.8132 3.8777-2.5455 6.1455s6.1455 0.66203 6.1455-2.5455c0-0.531-0.117-1.026-0.324-1.476l2.124-2.124 6.3 6.2h2.7v-0.8z" fill="#fff"/>
 <path d="m1 11h7v2h-7zm15 0h7v2h-7z" fill="#fff"/>
</svg>

<svg xmlns="http://www.w3.org/2000/svg" width="24" height="24"><path d="M18.3 4l-5.4 5.3 1.8 1.8L21 4.8V4m-9 8.45a.45.45 0 110-.9.45.45 0 010 .9M6.6 19.2a1.8 1.8 0 110-3.6 1.8 1.8 0 010 3.6m0-10.8a1.8 1.8 0 110-3.6 1.8 1.8 0 010 3.6m3.276-.324c.207-.45.324-.945.324-1.476a3.6 3.6 0 10-3.6 3.6c.531 0 1.026-.117 1.476-.324L10.2 12l-2.124 2.124A3.507 3.507 0 006.6 13.8a3.6 3.6 0 103.6 3.6c0-.531-.117-1.026-.324-1.476L12 13.8l6.3 6.2H21v-.8z" fill="#fff"/><path d="M1 11h7v2H1zM16 11h7v2h-7z" fill="#fff"/></svg>
